manual-assets/professional/deepin-draw/en_US/icon/Shift.svg

<?xml version="1.0" encoding="iso-8859-1"?>
<!-- Generator: Adobe Illustrator 18.0.0, SVG Export Plug-In . SVG Version: 6.00 Build 0)  -->
<!DOCTYPE svg PUBLIC "-//W3C//DTD SVG 1.1//EN" "http://www.w3.org/Graphics/SVG/1.1/DTD/svg11.dtd">
<svg version="1.1" id="&#x56FE;&#x5C42;_1" xmlns="http://www.w3.org/2000/svg" xmlns:xlink="http://www.w3.org/1999/xlink" x="0px"
	 y="0px" viewBox="0 0 30 20" enable-background="new 0 0 30 20" xml:space="preserve">
<g>
	<path opacity="0.1" fill="#FFFFFF" d="M25.667,19.492H4.333c-2.108,0-3.833-1.725-3.833-3.833V4.325
		c0-2.108,1.725-3.833,3.833-3.833h21.334c2.108,0,3.833,1.725,3.833,3.833v11.334C29.5,17.767,27.775,19.492,25.667,19.492z"/>
	<path d="M16,14h-1v-3.478C15,9.307,14.493,8.7,13.643,8.7c-0.435,0-0.86,0.178-1.148,0.533C12.208,9.587,12,10.033,12,10.572V14h-1
		V5h1v4h0.065c0.436-1,1.135-1.16,1.936-1.16C15.28,7.84,16,8.636,16,10.277V14z"/>
	<path d="M16.895,6.688c0-0.169,0.058-0.311,0.174-0.427c0.115-0.116,0.258-0.173,0.427-0.173c0.173,0,0.318,0.057,0.438,0.17
		c0.118,0.114,0.178,0.258,0.178,0.43c0,0.17-0.06,0.311-0.178,0.423c-0.119,0.112-0.265,0.169-0.438,0.169
		c-0.172,0-0.315-0.057-0.43-0.169C16.952,6.998,16.895,6.857,16.895,6.688z"/>
	<rect x="17" y="8" width="1" height="6"/>
	<path d="M22.441,6.911c-0.179-0.092-0.372-0.139-0.581-0.139c-0.599,0-0.898,0.366-0.898,1.098V8h1.054v1h-1.054v4.992h-0.947V9H19
		V8h1.015V7.826c0-0.571,0.167-1.019,0.501-1.346c0.333-0.327,0.758-0.488,1.271-0.488c0.273,0,0.492,0.03,0.654,0.091V6.911z"/>
	<path fill="none" stroke="#CBCBCB" stroke-miterlimit="10" d="M25.5,19.5h-21c-2.209,0-4-1.791-4-4v-11c0-2.209,1.791-4,4-4h21
		c2.209,0,4,1.791,4,4v11C29.5,17.709,27.709,19.5,25.5,19.5z"/>
	<g>
		<path d="M6.451,13.992c-0.383,0-0.837-0.049-1.349-0.145c-0.505-0.095-0.877-0.213-1.104-0.352l0.035-1.277
			c0.29,0.194,0.654,0.359,1.087,0.49c0.511,0.156,1.006,0.235,1.469,0.235c1.386,0,2.187-0.195,2.187-1.189
			c0-0.271-0.082-0.518-0.243-0.735c-0.155-0.208-0.371-0.395-0.641-0.556c-0.264-0.156-0.745-0.389-1.47-0.712
			c-0.971-0.436-1.617-0.844-1.92-1.211C4.203,8.181,4.052,7.763,4.052,7.299c0-0.709,0.309-1.257,0.943-1.674
			c0.638-0.42,1.683-0.633,2.662-0.633c0.71,0,1.332,0.159,2.343,0.485v1.009c-1.011-0.283-1.467-0.58-2.413-0.58
			c-0.619,0-1.245,0.12-1.64,0.357c-0.399,0.239-0.701,0.48-0.701,0.939c0,0.39,0.116,0.713,0.402,0.958
			c0.272,0.234,0.828,0.542,1.726,0.942c0.953,0.411,1.618,0.825,1.993,1.23c0.367,0.396,0.55,0.847,0.55,1.339
			c0,0.752-0.296,1.312-0.9,1.714C8.409,13.787,7.544,13.992,6.451,13.992z"/>
	</g>
	<path d="M26,13.811c0,0.114-0.342,0.171-0.697,0.171c-0.967,0-1.303-0.535-1.303-1.606V9h-1V8h1V6.728l1-0.303V8h1v1h-1v3.204
		c0,0.355-0.027,0.612,0.094,0.765c0.121,0.153,0.232,0.227,0.512,0.227c0.215,0,0.394-0.181,0.394-0.181V13.811z"/>
</g>
</svg>

<?xml version="1.0" encoding="UTF-8"?>
<svg width="30px" height="20px" viewBox="0 0 30 20" version="1.1" xmlns="http://www.w3.org/2000/svg" xmlns:xlink="http://www.w3.org/1999/xlink">
    <!-- Generator: Sketch 64 (93537) - https://sketch.com -->
    <title>Shift</title>
    <desc>Created with Sketch.</desc>
    <g id="页面-1" stroke="none" stroke-width="1" fill="none" fill-rule="evenodd">
        <g id="Shift">
            <path d="M25.667,19.492 L4.333,19.492 C2.225,19.492 0.5,17.767 0.5,15.659 L0.5,4.325 C0.5,2.217 2.225,0.492 4.333,0.492 L25.667,0.492 C27.775,0.492 29.5,2.217 29.5,4.325 L29.5,15.659 C29.5,17.767 27.775,19.492 25.667,19.492 L25.667,19.492 Z" id="path2" fill="#FFFFFF" fill-rule="nonzero"></path>
            <path d="M16,14 L15,14 L15,10.522 C15,9.307 14.493,8.7 13.643,8.7 C13.208,8.7 12.783,8.878 12.495,9.233 C12.208,9.587 12,10.033 12,10.572 L12,14 L11,14 L11,5 L12,5 L12,9 L12.065,9 C12.501,8 13.2,7.84 14.001,7.84 C15.28,7.84 16,8.636 16,10.277 L16,14 Z" id="path4" fill="#000000" fill-rule="nonzero"></path>
            <path d="M16.895,6.688 C16.895,6.519 16.953,6.377 17.069,6.261 C17.184,6.145 17.327,6.088 17.496,6.088 C17.669,6.088 17.814,6.145 17.934,6.258 C18.052,6.372 18.112,6.516 18.112,6.688 C18.112,6.858 18.052,6.999 17.934,7.111 C17.815,7.223 17.669,7.28 17.496,7.28 C17.324,7.28 17.181,7.223 17.066,7.111 C16.952,6.998 16.895,6.857 16.895,6.688 Z" id="path6" fill="#000000" fill-rule="nonzero"></path>
            <rect id="rect8" fill="#000000" fill-rule="nonzero" x="17" y="8" width="1" height="6"></rect>
            <path d="M22.441,6.911 C22.262,6.819 22.069,6.772 21.86,6.772 C21.261,6.772 20.962,7.138 20.962,7.87 L20.962,8 L22.016,8 L22.016,9 L20.962,9 L20.962,13.992 L20.015,13.992 L20.015,9 L19,9 L19,8 L20.015,8 L20.015,7.826 C20.015,7.255 20.182,6.807 20.516,6.48 C20.849,6.153 21.274,5.992 21.787,5.992 C22.06,5.992 22.279,6.022 22.441,6.083 L22.441,6.911 Z" id="path10" fill="#000000" fill-rule="nonzero"></path>
            <path d="M25.5,19.5 L4.5,19.5 C2.291,19.5 0.5,17.709 0.5,15.5 L0.5,4.5 C0.5,2.291 2.291,0.5 4.5,0.5 L25.5,0.5 C27.709,0.5 29.5,2.291 29.5,4.5 L29.5,15.5 C29.5,17.709 27.709,19.5 25.5,19.5 Z" id="path12" stroke="#CBCBCB"></path>
            <g id="g16" transform="translate(4.000000, 4.000000)" fill="#000000" fill-rule="nonzero">
                <path d="M2.451,9.992 C2.068,9.992 1.614,9.943 1.102,9.847 C0.597,9.752 0.225,9.634 -0.002,9.495 L0.033,8.218 C0.323,8.412 0.687,8.577 1.12,8.708 C1.631,8.864 2.126,8.943 2.589,8.943 C3.975,8.943 4.776,8.748 4.776,7.754 C4.776,7.483 4.694,7.236 4.533,7.019 C4.378,6.811 4.162,6.624 3.892,6.463 C3.628,6.307 3.147,6.074 2.422,5.751 C1.451,5.315 0.805,4.907 0.502,4.54 C0.203,4.181 0.052,3.763 0.052,3.299 C0.052,2.59 0.361,2.042 0.995,1.625 C1.633,1.205 2.678,0.992 3.657,0.992 C4.367,0.992 4.989,1.151 6,1.477 L6,2.486 C4.989,2.203 4.533,1.906 3.587,1.906 C2.968,1.906 2.342,2.026 1.947,2.263 C1.548,2.502 1.246,2.743 1.246,3.202 C1.246,3.592 1.362,3.915 1.648,4.16 C1.92,4.394 2.476,4.702 3.374,5.102 C4.327,5.513 4.992,5.927 5.367,6.332 C5.734,6.728 5.917,7.179 5.917,7.671 C5.917,8.423 5.621,8.983 5.017,9.385 C4.409,9.787 3.544,9.992 2.451,9.992 L2.451,9.992 Z" id="path14"></path>
            </g>
            <path d="M26,13.811 C26,13.925 25.658,13.982 25.303,13.982 C24.336,13.982 24,13.447 24,12.376 L24,9 L23,9 L23,8 L24,8 L24,6.728 L25,6.425 L25,8 L26,8 L26,9 L25,9 L25,12.204 C25,12.559 24.973,12.816 25.094,12.969 C25.215,13.122 25.326,13.196 25.606,13.196 C25.821,13.196 26,13.015 26,13.015 L26,13.811 Z" id="path18" fill="#000000" fill-rule="nonzero"></path>
        </g>
    </g>
</svg>
